public/assets/images/shapes/grey.svg

<svg width="1280" height="788" viewBox="0 0 1280 788" fill="none" xmlns="http://www.w3.org/2000/svg">
  <path d="M1312.47 8.45459C1315.49 6.27539 1317.78 4.51398 1319.36 3.26569L1297.03 544.285C973.534 688.377 695.156 712.443 451.316 690.56C283.181 675.471 174.32 682.288 99.8654 701.53C27.4555 720.243 -12.3776 750.699 -42.4998 784.066L-42.4999 202.175C-42.3996 202.111 -42.2884 202.041 -42.1664 201.964C-41.4851 201.535 -40.4656 200.898 -39.1173 200.071C-36.4206 198.417 -32.4086 196 -27.1565 192.959C-16.652 186.878 -1.18761 178.297 18.6351 168.313C58.2819 148.344 115.355 122.765 185.043 100.336C324.432 55.4727 514.202 23.2366 715.915 73.6025C918.256 124.125 1069.71 106.08 1170.63 75.3504C1221.08 59.9878 1258.89 41.4595 1284.1 26.7594C1296.71 19.4094 1306.16 13.0164 1312.47 8.45459Z" fill="#F1F5FD" stroke="white" stroke-width="3" />
</svg>

<svg xmlns="http://www.w3.org/2000/svg" width="1280" height="788" fill="none"><path fill="#F1F5FD" stroke="#fff" stroke-width="3" d="M1312.47 8.455c3.02-2.18 5.31-3.941 6.89-5.19l-22.33 541.02C973.534 688.377 695.156 712.443 451.316 690.56c-168.135-15.089-276.996-8.272-351.45 10.97-72.41 18.713-112.244 49.169-142.366 82.536V202.175l.334-.211c.68-.429 1.7-1.066 3.049-1.893a553.037 553.037 0 0 1 11.96-7.112c10.505-6.081 25.97-14.662 45.792-24.646 39.647-19.969 96.72-45.548 166.408-67.977 139.389-44.863 329.159-77.1 530.872-26.733 202.341 50.522 353.795 32.477 454.715 1.747 50.45-15.362 88.26-33.89 113.47-48.59 12.61-7.35 22.06-13.744 28.37-18.305Z"/></svg>
